!!!!SEGMENT: pl-kozmzk--mzk-m-159--010_walczynski-franciszek--praeludia-organi-op-5-allegretto.krn
!!!cenid: 18xx:2753
!!!COM: Walczyński, Franciszek
!!!COM-rismid: pe30021989
!!!CDT: ~1852-1937
!!!CNT: Polish
!!!OTL: Praeludia organi op. 5 – Allegretto
!!!PDT: 1894
!!!AGN: Secular; Prelude
!!!SMS-siglum: PL-KOZmzk
!!!SMS-shelfmark: mzk/m/159
!!!SMS-shelfwork: 010 G
!!!SMS-variant:
!!!SMS-altvar:
!!!NIFC-rismid: 1001116625
!!!URL-scan: https://repozytorium.nifc.pl/islandora/object/pl-kozmzk%3A2265/datastream/PDF/view
!!!ONB-nifc: UWAGA: numeracja plików zgodna z numeracją źrodłową
!!!OMD:10. Allegretto.
**kern	**kern	**dynam
*part2	*part1	*part1
*staff2	*staff1	*
*clefF4	*clefG2	*
*k[f#c#g#d#]	*k[f#c#g#d#]	*
*E:	*E:	*
*M6/4	*M6/4	*
=1	=1	=1
*^	*^	*
!	!	!	!	!LO:DY:rj
(2.B/	[2.E\	(4ee/	2.g#\	fp
.	.	4b/	.	.
.	.	4g#/	.	.
2.A#X/	2.E\]	2dd#/	2.f##X\	.
.	.	4cc#/	.	.
=2	=2	=2	=2	=2
!	!	!	!LO:N:acc=n#	!
2.B/	2.D#\	2b/	2.f#\	.
.	.	4f#/	.	.
2.B/)	2.E\	2.g#/)	2.e\	.
=3	=3	=3	=3	=3
(2.c#/	(4AA\	(4f#/	2.e\	p
.	4GG#\	4g#/	.	<
.	4FF#\	4a/	.	.
2B/	2.BB\	2g#/	2.d#\	.
4A/	.	4f#/	.	.
=4	=4	=4	=4	=4
4G#/	4C#\	4e/	4e\	.
2C#/	2AA\	4f#/	2c#\	[
.	.	4f##X/	.	.
2.D#/)	2.GG#;\)	2.g#;/)	2.B#X\	.
=5	=5	=5	=5	=5
1.r	(4G#\	1.rdd	1.rg	p
.	4F##X\	.	.	<
.	4G#\	.	.	.
.	2A\	.	.	.
.	4G#\	.	.	.
=6	=6	=6	=6	=6
1.r	2G#\	1.rdd	1.rg	[ >
.	4F#\	.	.	.
.	2.E\)	.	.	]
!!LO:LB:g=original
=7	=7	=7	=7	=7
!	!	!	!	!LO:DY:rj
(2.B/	(2.G#\	(4b/	2.d#\	p
.	.	4a#X/	.	.
.	.	4b/	.	.
2.A#X/	2.F##X\	2dd#/	2.e\	.
.	.	4cc#/	.	.
=8	=8	=8	=8	=8
2.An/	2.F#\	2b/	2.d#\	.
.	.	4f#/	.	.
2.B/)	2.E\)	2.g#/)	2.e\	.
=9	=9	=9	=9	=9
(4e/	[2.E\	(2.g#/	[2.e\	f
4d#/	.	.	.	.
4dn/	.	.	.	.
2c#/	2.E\]	2a/	2.e\]	.
4G#/	.	4b/	.	.
=10	=10	=10	=10	=10
2A/	2AA\	2cc#/	2e\	<
4B#X/	4GG#\	4dd#/	4f#\	.
2.G#/)	2.C#;\	2.ee;/)	2.e\	[ ff
=11	=11	=11	=11	=11
!LO:TX:b:i:t=Ped.	!	!	!	!LO:DY:a
(4A/	(4Cn\	(4f#/	[2.e\	p
4B/	4BB\	4g#/	.	.
4cn/	4AA\	4a/	.	.
2B/	2GG#\	2b/	2e\]	.
4A/)	4AA\	4e/	4c#X\	.
=12	=12	=12	=12	=12
(4E/	[2.BB\	2.g#^/	2.e\	.
4B/	.	.	.	.
4A#X/)	.	.	.	.
[2.An/	2.BB\])	2g#/	2.d#\	.
.	.	4f#/)	.	.
=13	=13	=13	=13	=13
!	!	!	!	!LO:HP:a
(2.A/_	[2.E\	([2.f#/ 2.d#/	[2.B\	>
!LO:TX:b:i:t=rit.	!	!	!	!
4A/]	2.E\]	2.f#/] 2.d#/	2.B\]	.
4G#/	.	.	.	.
4F#/	.	.	.	.
=14	=14	=14	=14	=14
1.G#/)	1.EE\;	1.e/;)	1.B\	] ppp
*v	*v	*	*	*
*	*v	*v	*
==	==	==
*-	*-	*-
!!!system-decoration: {(s1,s2)}
!!!EED: Andrzej Borzym
!!!EST: 2021-08-08
!!!ENC: Krzysztof Stępień
!!!END: 2021-07-26
